X:66
T:La Rotta
O:Italy
M:2/4
L:1/8
K:C
%P:
%Q:
|: z z AB | c2 Bc | A2 d2 | dcBc | [1 A2 AG | GFEF | DEFD | E4 | E2 z z :| [2 A2 AG | GFFE | EDDC | D8 |]
|: z z AG | F2 FE | FEFG | AGFE | D2 AG | [1 GFFE | EDCD | E4 | E4 :| [2 GFFE | EDDC | D8 |]
|: D4 | D2 DE | F2 FG | A2 AB | c2 Bc | A2 AG | [1 GFFE | EDDC | E4 E4 :| [2 GFFE | EDDC | D8 |]
%
%
